icons/desktop/20/home-20.svg

<svg width="20" height="20" viewBox="0 0 20 20" fill="none" xmlns="http://www.w3.org/2000/svg">
<path fill-rule="evenodd" clip-rule="evenodd" d="M8.14349 1.61388C9.25446 0.796093 10.7455 0.795954 11.8564 1.61388C13.1564 2.57188 14.4296 3.59771 15.6406 4.66271C17.0766 5.92471 18.4645 7.27722 19.7665 8.68322C20.0953 9.03722 20.0746 9.59161 19.7197 9.91955C19.5517 10.0755 19.3379 10.152 19.1249 10.152C18.89 10.1519 18.6553 10.0576 18.4833 9.8717C18.406 9.78833 18.3279 9.70566 18.2499 9.62267V15.486C18.2499 17.0218 17.1084 18.3515 15.5947 18.5797C13.7477 18.8577 11.8649 18.9996 9.99994 18.9996C8.14516 18.9996 6.27133 18.8605 4.43255 18.5846C2.87855 18.3526 1.74994 17.0499 1.74994 15.4889V9.62267C1.67204 9.70568 1.59382 9.78829 1.51654 9.8717C1.18961 10.2266 0.63322 10.2473 0.280209 9.91955C-0.0737895 9.59155 -0.0956626 9.03722 0.233334 8.68322C1.53533 7.27822 2.92329 5.92471 4.36029 4.66271C5.57022 3.59879 6.84358 2.57182 8.14349 1.61388ZM9.99994 11.7496C9.53414 11.7496 9.10619 11.7924 8.72455 11.857C8.30869 11.9278 8.00034 12.2912 7.99994 12.7233V17.192C9.3323 17.2662 10.6689 17.266 11.9999 17.192V12.7184C11.9996 12.2832 11.6942 11.9307 11.3193 11.8649C10.7973 11.7734 10.3451 11.7496 9.99994 11.7496ZM10.8173 3.02209C10.3294 2.66114 9.67153 2.66125 9.18255 3.02209C7.92261 3.95104 6.68851 4.94522 5.51556 5.97717C4.831 6.57862 4.15748 7.20108 3.49994 7.84045V15.4899C3.49994 16.1779 4.00137 16.7511 4.69037 16.8541C5.20841 16.9317 5.72861 16.9957 6.24994 17.0504V12.7233C6.25034 11.4482 7.16414 10.3478 8.43158 10.1324C8.89967 10.0531 9.42612 9.99964 9.99994 9.99963C10.3182 9.99963 10.7106 10.0155 11.1572 10.0709L11.622 10.1412C12.8866 10.3633 13.7496 11.4882 13.7499 12.7184V17.0504C14.2793 16.9948 14.8074 16.9295 15.3329 16.8502C15.9989 16.7502 16.4999 16.1629 16.4999 15.4869V7.84142C15.8424 7.20179 15.1695 6.57874 14.4853 5.97717C13.3113 4.94518 12.0773 3.95107 10.8173 3.02209Z" fill="black"/>
</svg>

<!-- This Source Code Form is subject to the terms of the Mozilla Public
   - License, v. 2.0. If a copy of the MPL was not distributed with this
   - file, You can obtain one at http://mozilla.org/MPL/2.0/. -->
<svg xmlns="http://www.w3.org/2000/svg" width="20" height="20" fill="context-fill" fill-opacity="context-fill-opacity" viewBox="0 0 20 20">
    <path fill-rule="evenodd" d="M8.143 1.614a3.12 3.12 0 0 1 3.713 0 56.6 56.6 0 0 1 7.91 7.07.874.874 0 1 1-1.283 1.188l-.233-.25v5.864a3.145 3.145 0 0 1-2.655 3.094c-1.847.278-3.73.42-5.595.42a38 38 0 0 1-5.567-.415 3.12 3.12 0 0 1-2.683-3.096V9.623q-.117.124-.233.249A.875.875 0 1 1 .233 8.683a56.3 56.3 0 0 1 7.91-7.07M10 11.75c-.466 0-.894.042-1.275.107a.876.876 0 0 0-.725.866v4.469c1.332.074 2.669.074 4 0v-4.474c0-.435-.306-.787-.68-.853A7.7 7.7 0 0 0 10 11.75m.817-8.728a1.37 1.37 0 0 0-1.634 0A55 55 0 0 0 3.5 7.84v7.65c0 .688.501 1.261 1.19 1.364a36 36 0 0 0 1.56.196v-4.327c0-1.275.914-2.375 2.182-2.59a9.4 9.4 0 0 1 2.725-.062l.465.07c1.265.222 2.128 1.347 2.128 2.577v4.332q.794-.081 1.583-.2a1.384 1.384 0 0 0 1.167-1.363V7.84a54.5 54.5 0 0 0-5.683-4.819" clip-rule="evenodd" />
</svg>
